remix/Design/ruler-2-fill.svg

<svg viewBox="0 0 24 24" fill="currentColor" xmlns="http://www.w3.org/2000/svg"><path d="M15 21H13V18H11V21H9V19H7V21H4C3.44772 21 3 20.5523 3 20V17H5V15H3V13H6V11H3V9H5V7H3V4C3 3.44772 3.44772 3 4 3H10C10.5523 3 11 3.44772 11 4V13H20C20.5523 13 21 13.4477 21 14V20C21 20.5523 20.5523 21 20 21H17V19H15V21Z"/></svg>

<svg viewBox="0 0 24 24" xmlns="http://www.w3.org/2000/svg"><path fill="none" d="M0 0h24v24H0Z"/><path d="M15 21h-2v-3h-2v3H9v-2H7v2H4v0c-.56 0-1-.45-1-1v-3h2v-2H3v-2h3v-2H3V9h2V7H3V4v0c0-.56.44-1 1-1h6v0c.55 0 1 .44 1 1v9h9v0c.55 0 1 .44 1 1v6 0c0 .55-.45 1-1 1h-3v-2h-2v2Z"/></svg>
